X: 12
T:Harvest Home, The
M:4/4
L:1/8
R:Hornpipe
K:D
AF[|:DAFA DAFA|defe dcBA|eAfA gAfA|(3efe (3dcB (3ABA (3GFE|!
DAFA DAFA|defe dcBA|eAfA gecA|1d2dc d2AF:|2d2dc d2cd|!
|:cd|eA~A2 fA~A2|gAfA eA~A2|eAfA gAfA|(3efe (3dcB (3ABA (3GFE|!
DAFA DAFA|defe dcBA|eAfA gecA|1d2dc d2cd:|2d2dc d2AF|]
